X: 22367
T: Lad From Orkney, The
R: reel
M: 4/4
K: Dmajor
ef ge dg ed|BA G2 BG dG|B/2c/2d g2 fg eg|dB A/2A/2A AB e/2e/2e|
ef g2 fg ed|BA GG BG dG|BG g2 fg eg|dB AG AB G2|
ef ge fd ea|a/2a/2a gf ga BA|GB AE E/2E/2E AB|GA B/2c/2d ef g2|
gf ge fd ea|a/2a/2a g/2g/2g gB2A|GB AE E/2E/2E AB|GA B/2c/2d ef G2|
ba gf ga ge|de GB2G dG|Bd gG fG eG|dB AG AB e2|
ef gf ga ge|de GB2G dG|Bd gG fG eG|dB AG AB G2|

